src/assets/img/paypal.svg

<svg viewBox="0 0 42 11" fill="none" xmlns="http://www.w3.org/2000/svg">
<path d="M7.62979 1.22264C7.14013 0.664524 6.25499 0.425248 5.12267 0.425248H1.83631C1.72422 0.425189 1.61579 0.465137 1.53053 0.537904C1.44526 0.610671 1.38877 0.711478 1.37122 0.822186L0.00343461 9.50129C-0.0029076 9.54155 -0.000445962 9.58271 0.0106501 9.62193C0.0217461 9.66115 0.0412127 9.6975 0.0677086 9.72847C0.0942046 9.75944 0.1271 9.7843 0.164129 9.80134C0.201157 9.81837 0.241439 9.82718 0.282198 9.82715H2.31106L2.82061 6.59519L2.80482 6.6964C2.82203 6.58591 2.87815 6.48521 2.96305 6.41243C3.04794 6.33965 3.15604 6.29959 3.26786 6.29946H4.23198C6.12599 6.29946 7.60902 5.53016 8.04223 3.30473C8.0551 3.23892 8.06622 3.17486 8.07587 3.11226C8.20457 2.28972 8.07499 1.72985 7.63008 1.22293" fill="#003087"/>
<path d="M32.4684 5.35223C32.3443 6.16659 31.7225 6.16659 31.1211 6.16659H30.7788L31.019 4.64611C31.0336 4.55426 31.1126 4.48669 31.2056 4.48669H31.3627C31.7722 4.48669 32.1589 4.48669 32.3584 4.71983C32.4774 4.85935 32.5134 5.06645 32.4684 5.35223V5.35223ZM32.2066 3.22743H29.9379C29.8627 3.22747 29.79 3.25429 29.7329 3.30307C29.6758 3.35186 29.6379 3.41942 29.626 3.49362L28.7093 9.31079C28.7051 9.33776 28.7068 9.36532 28.7142 9.39159C28.7216 9.41785 28.7346 9.4422 28.7524 9.46295C28.7701 9.48371 28.7921 9.50039 28.8169 9.51184C28.8417 9.52329 28.8686 9.52925 28.8959 9.5293H30.0601C30.1686 9.5293 30.2611 9.45032 30.278 9.34326L30.5384 7.6935C30.5624 7.54051 30.6946 7.42731 30.8496 7.42731H31.5674C33.0622 7.42731 33.9245 6.70451 34.1497 5.27092C34.2512 4.64436 34.1538 4.15177 33.8604 3.8069C33.5378 3.4278 32.9659 3.22714 32.2069 3.22714" fill="#009CDE"/>
<path d="M16.2887 5.35259C16.1647 6.16694 15.5428 6.16694 14.9411 6.16694H14.5989L14.839 4.64647C14.8537 4.55462 14.9326 4.48705 15.0257 4.48705H15.1827C15.5923 4.48705 15.979 4.48705 16.1785 4.72018C16.2978 4.85971 16.3338 5.06681 16.2887 5.35259V5.35259ZM16.0269 3.22779H13.7582C13.6032 3.22779 13.471 3.3407 13.4467 3.49397L12.5297 9.31114C12.5254 9.33812 12.527 9.3657 12.5344 9.39199C12.5419 9.41827 12.5549 9.44264 12.5726 9.46341C12.5904 9.48418 12.6124 9.50085 12.6372 9.51229C12.662 9.52373 12.689 9.52965 12.7163 9.52965H13.7998C13.9548 9.52965 14.0867 9.41674 14.111 9.26347L14.3587 7.69414C14.3827 7.54087 14.5149 7.42796 14.67 7.42796H15.3878C16.8825 7.42796 17.7449 6.70487 17.9701 5.27127C18.0716 4.64471 17.9742 4.15212 17.6808 3.80725C17.3582 3.42816 16.7863 3.22749 16.0272 3.22749L16.0269 3.22779ZM21.2942 7.44112C21.1889 8.06183 20.6966 8.47866 20.068 8.47866C19.7529 8.47866 19.5005 8.37716 19.3385 8.18527C19.1776 7.99514 19.1173 7.72398 19.1682 7.4224C19.2659 6.80696 19.7667 6.37696 20.3856 6.37696C20.6942 6.37696 20.9443 6.47934 21.1099 6.67298C21.2763 6.86809 21.3419 7.14071 21.2942 7.44112V7.44112ZM22.8082 5.32626H21.7218C21.6767 5.32621 21.633 5.34231 21.5986 5.37165C21.5643 5.40099 21.5416 5.44165 21.5346 5.48627L21.4872 5.78989L21.4112 5.67991C21.176 5.33855 20.6515 5.22418 20.1279 5.22418C18.9278 5.22418 17.9025 6.13389 17.703 7.40924C17.5992 8.04603 17.7466 8.65416 18.1076 9.0786C18.439 9.46852 18.912 9.63086 19.4756 9.63086C20.4433 9.63086 20.9797 9.00957 20.9797 9.00957L20.9312 9.31144C20.9269 9.33844 20.9285 9.36604 20.936 9.39235C20.9434 9.41866 20.9565 9.44304 20.9742 9.46381C20.992 9.48459 21.0141 9.50126 21.0389 9.51267C21.0637 9.52409 21.0908 9.52998 21.1181 9.52994H22.0962C22.2513 9.52994 22.3835 9.41733 22.4078 9.26376L22.9951 5.54506C22.9994 5.51804 22.9977 5.49043 22.9902 5.46413C22.9827 5.43782 22.9697 5.41344 22.9519 5.39268C22.9341 5.37191 22.912 5.35525 22.8872 5.34383C22.8623 5.33242 22.8353 5.32652 22.8079 5.32656" fill="#003087"/>
<path d="M37.4752 7.44112C37.3699 8.06183 36.8776 8.47866 36.249 8.47866C35.934 8.47866 35.6815 8.37716 35.5195 8.18527C35.3586 7.99514 35.2983 7.72398 35.3492 7.4224C35.4469 6.80696 35.9474 6.37696 36.5667 6.37696C36.8753 6.37696 37.1254 6.47934 37.2909 6.67299C37.4574 6.86809 37.5229 7.14071 37.4752 7.44112V7.44112ZM38.9893 5.32626H37.9029C37.8577 5.32621 37.814 5.34231 37.7797 5.37165C37.7453 5.40099 37.7226 5.44165 37.7157 5.48627L37.6683 5.78989L37.5922 5.67991C37.357 5.33855 36.8326 5.22418 36.309 5.22418C35.1091 5.22418 34.0838 6.13389 33.8841 7.40924C33.7802 8.04603 33.9279 8.65416 34.2889 9.0786C34.6203 9.46852 35.0933 9.63086 35.657 9.63086C36.6249 9.63086 37.1614 9.00957 37.1614 9.00957L37.1128 9.31144C37.1084 9.3384 37.11 9.366 37.1173 9.39231C37.1247 9.41862 37.1377 9.44301 37.1554 9.4638C37.1731 9.48458 37.1952 9.50127 37.22 9.51269C37.2448 9.52411 37.2718 9.53 37.2991 9.52994H38.277C38.432 9.52994 38.5642 9.41733 38.5888 9.26376L39.1762 5.54506C39.1804 5.51804 39.1787 5.49043 39.1713 5.46413C39.1638 5.43782 39.1507 5.41344 39.1329 5.39268C39.1151 5.37191 39.093 5.35525 39.0682 5.34383C39.0433 5.33242 39.0163 5.32652 38.989 5.32656" fill="#009CDE"/>
<path d="M28.5934 5.32645H27.5011C27.3967 5.32645 27.2993 5.37823 27.2408 5.46481L25.7344 7.68321L25.0958 5.55139C25.0763 5.48637 25.0364 5.42935 24.982 5.38878C24.9276 5.34822 24.8615 5.32626 24.7936 5.32616H23.7204C23.6903 5.32617 23.6607 5.33336 23.6339 5.34714C23.6071 5.36091 23.5841 5.38086 23.5666 5.40534C23.549 5.42982 23.5376 5.45813 23.5333 5.4879C23.5289 5.51768 23.5317 5.54807 23.5414 5.57655L24.7436 9.10599L23.6128 10.7016C23.5928 10.73 23.581 10.7632 23.5786 10.7978C23.5762 10.8324 23.5834 10.867 23.5993 10.8977C23.6153 10.9285 23.6394 10.9543 23.669 10.9724C23.6986 10.9904 23.7326 11 23.7672 11H24.8583C24.9612 11 25.0581 10.9494 25.1172 10.8646L28.7484 5.62335C28.7681 5.59502 28.7797 5.56183 28.7819 5.52738C28.7841 5.49293 28.7768 5.45855 28.7608 5.42795C28.7448 5.39735 28.7208 5.37172 28.6912 5.35382C28.6617 5.33593 28.6279 5.32646 28.5934 5.32645" fill="#003087"/>
<path d="M40.2696 3.38812L39.3382 9.31177C39.334 9.33876 39.3357 9.36635 39.3431 9.39263C39.3506 9.41892 39.3636 9.44328 39.3814 9.46404C39.3991 9.4848 39.4212 9.50147 39.446 9.51291C39.4708 9.52434 39.4978 9.53026 39.5251 9.53027H40.4615C40.6165 9.53027 40.7487 9.41736 40.773 9.26409L41.6912 3.44662C41.6954 3.41962 41.6938 3.39202 41.6864 3.36571C41.6789 3.3394 41.6659 3.31502 41.6481 3.29425C41.6304 3.27347 41.6083 3.2568 41.5835 3.24539C41.5586 3.23397 41.5316 3.22808 41.5043 3.22812H40.4565C40.4114 3.228 40.3677 3.24405 40.3334 3.27335C40.2991 3.30265 40.2765 3.34326 40.2696 3.38783" fill="#009CDE"/>
<path d="M7.62979 1.22264C7.14013 0.664524 6.25499 0.425248 5.12267 0.425248H1.83631C1.72422 0.425189 1.61579 0.465137 1.53053 0.537904C1.44526 0.610671 1.38877 0.711478 1.37122 0.822186L0.00343461 9.50129C-0.0029076 9.54155 -0.000445962 9.58271 0.0106501 9.62193C0.0217461 9.66115 0.0412127 9.6975 0.0677086 9.72847C0.0942046 9.75944 0.1271 9.7843 0.164129 9.80134C0.201157 9.81837 0.241439 9.82718 0.282198 9.82715H2.31106L2.82061 6.59519L2.80482 6.6964C2.82203 6.58591 2.87815 6.48521 2.96305 6.41243C3.04794 6.33965 3.15604 6.29959 3.26786 6.29946H4.23198C6.12599 6.29946 7.60902 5.53016 8.04223 3.30473C8.0551 3.23892 8.06622 3.17486 8.07587 3.11226C8.20457 2.28972 8.07499 1.72985 7.63008 1.22293" fill="#003087"/>
<path d="M3.36824 3.12337C3.38361 3.02664 3.43296 2.93855 3.50742 2.87492C3.58188 2.81128 3.67659 2.77627 3.77454 2.77616H6.35098C6.65606 2.77616 6.94068 2.79605 7.20072 2.83759C7.3429 2.86046 7.48356 2.89192 7.62194 2.93178C7.77909 2.97596 7.93115 3.03655 8.07562 3.11255C8.20491 2.28972 8.07504 1.73014 7.63013 1.22293C7.14017 0.66511 6.25532 0.425835 5.12301 0.425835H1.83636C1.72437 0.425915 1.61607 0.465926 1.53093 0.53868C1.44579 0.611435 1.38939 0.712165 1.37185 0.822773L0.00348083 9.501C-0.0029043 9.54126 -0.000484725 9.58242 0.010573 9.62166C0.0216307 9.66089 0.0410635 9.69727 0.0675324 9.72827C0.0940013 9.75927 0.126877 9.78416 0.163894 9.80123C0.20091 9.8183 0.241188 9.82714 0.281951 9.82715H2.3111L2.82066 6.5949L3.36824 3.12337Z" fill="#003087"/>
<path d="M8.07622 3.11185C8.06618 3.1762 8.05497 3.24037 8.04259 3.30432C7.60938 5.52945 6.12634 6.29905 4.23233 6.29905H3.26792C3.15612 6.29913 3.04803 6.33918 2.96317 6.41197C2.87831 6.48477 2.82227 6.5855 2.80517 6.69599L2.31141 9.82644L2.17101 10.7145C2.16542 10.7498 2.16755 10.7858 2.17725 10.8202C2.18694 10.8545 2.20397 10.8864 2.22716 10.9135C2.25035 10.9406 2.27915 10.9624 2.31157 10.9774C2.34399 10.9923 2.37927 11 2.41496 11H4.12527C4.32769 11 4.49969 10.8526 4.53157 10.6528L4.54825 10.5656L4.87059 8.52272L4.89107 8.40981C4.9064 8.313 4.95577 8.22484 5.0303 8.16119C5.10484 8.09754 5.19964 8.06258 5.29766 8.0626H5.55361C7.21039 8.0626 8.50768 7.38983 8.88677 5.44287C9.04473 4.62969 8.96283 3.95019 8.54453 3.4731C8.41171 3.32519 8.25301 3.20276 8.07622 3.11185" fill="#009CDE"/>
<path d="M7.62596 2.93167C7.55986 2.91207 7.4917 2.89452 7.4215 2.87902C7.3513 2.86351 7.27875 2.84976 7.20445 2.83806C6.94412 2.79565 6.6598 2.77576 6.35442 2.77576H3.77827C3.68021 2.77564 3.58535 2.81061 3.51083 2.87434C3.43631 2.93808 3.38706 3.02637 3.37197 3.12326L2.82439 6.59537L2.80859 6.69629C2.82569 6.5858 2.88173 6.48507 2.96659 6.41228C3.05145 6.33948 3.15954 6.29943 3.27135 6.29935H4.23576C6.12977 6.29935 7.6128 5.53005 8.04601 3.30462C8.05888 3.2388 8.0697 3.17504 8.07965 3.11215C7.96524 3.05228 7.84607 3.002 7.72337 2.9618C7.69149 2.95127 7.65902 2.94132 7.62596 2.93138" fill="#012169"/>
</svg>

<svg viewBox="0 0 42 11" fill="none" xmlns="http://www.w3.org/2000/svg"><path d="M7.63 1.223C7.14.665 6.255.425 5.123.425H1.836a.47.47 0 0 0-.465.397L.003 9.502a.282.282 0 0 0 .28.325H2.31l.51-3.232-.016.101a.47.47 0 0 1 .463-.397h.964c1.894 0 3.377-.769 3.81-2.994.013-.066.024-.13.034-.193.129-.822-.001-1.382-.446-1.89" fill="#003087"/><path d="M32.468 5.352c-.124.815-.746.815-1.347.815h-.342l.24-1.52a.189.189 0 0 1 .187-.16h.157c.41 0 .796 0 .995.233.12.14.155.346.11.632Zm-.261-2.125h-2.27a.316.316 0 0 0-.311.267l-.917 5.817a.19.19 0 0 0 .187.218h1.164a.22.22 0 0 0 .218-.186l.26-1.65a.315.315 0 0 1 .312-.266h.717c1.495 0 2.358-.722 2.583-2.156.101-.627.004-1.12-.29-1.464-.322-.38-.894-.58-1.653-.58" fill="#009CDE"/><path d="M16.289 5.353c-.124.814-.746.814-1.348.814H14.6l.24-1.52a.189.189 0 0 1 .187-.16h.157c.41 0 .796 0 .995.233.12.14.156.347.11.633Zm-.262-2.125h-2.269a.316.316 0 0 0-.311.266l-.917 5.817a.189.189 0 0 0 .186.219H13.8a.315.315 0 0 0 .311-.267l.248-1.569a.315.315 0 0 1 .311-.266h.718c1.495 0 2.357-.723 2.582-2.157.102-.626.004-1.119-.29-1.464-.322-.379-.894-.58-1.653-.58Zm5.267 4.213a1.212 1.212 0 0 1-1.226 1.038c-.315 0-.568-.102-.73-.294-.16-.19-.22-.461-.17-.763a1.216 1.216 0 0 1 1.218-1.045c.308 0 .558.102.724.296.166.195.232.468.184.768Zm1.514-2.115h-1.086a.19.19 0 0 0-.187.16l-.048.304-.076-.11c-.235-.341-.76-.456-1.283-.456-1.2 0-2.226.91-2.425 2.185-.104.637.044 1.245.405 1.67.331.39.804.552 1.368.552.967 0 1.504-.621 1.504-.621l-.049.301a.187.187 0 0 0 .108.202.189.189 0 0 0 .08.017h.977a.315.315 0 0 0 .312-.266l.587-3.719a.188.188 0 0 0-.108-.201.19.19 0 0 0-.08-.017" fill="#003087"/><path d="M37.475 7.441A1.212 1.212 0 0 1 36.25 8.48c-.315 0-.568-.102-.73-.294-.16-.19-.22-.461-.17-.763a1.215 1.215 0 0 1 1.218-1.045c.308 0 .558.102.724.296.166.195.232.468.184.768Zm1.514-2.115h-1.086a.19.19 0 0 0-.187.16l-.048.304-.076-.11c-.235-.341-.76-.456-1.283-.456-1.2 0-2.225.91-2.425 2.185-.104.637.044 1.245.405 1.67.331.39.804.552 1.368.552.968 0 1.504-.621 1.504-.621l-.048.301a.189.189 0 0 0 .186.219h.978a.316.316 0 0 0 .312-.266l.587-3.719a.19.19 0 0 0-.108-.201.19.19 0 0 0-.079-.017" fill="#009CDE"/><path d="M28.593 5.326h-1.092a.314.314 0 0 0-.26.139l-1.507 2.218-.638-2.132a.316.316 0 0 0-.302-.225H23.72a.19.19 0 0 0-.179.25l1.203 3.53-1.131 1.596a.19.19 0 0 0 .154.298h1.091c.103 0 .2-.05.26-.135l3.63-5.242a.19.19 0 0 0-.155-.297" fill="#003087"/><path d="m40.27 3.388-.932 5.924a.19.19 0 0 0 .108.2.19.19 0 0 0 .08.018h.935a.316.316 0 0 0 .312-.266l.918-5.817a.19.19 0 0 0-.108-.202.19.19 0 0 0-.079-.017h-1.047a.189.189 0 0 0-.187.16" fill="#009CDE"/><path d="M7.63 1.223C7.14.665 6.255.425 5.123.425H1.836a.47.47 0 0 0-.465.397L.003 9.502a.282.282 0 0 0 .28.325H2.31l.51-3.232-.016.101a.47.47 0 0 1 .463-.397h.964c1.894 0 3.377-.769 3.81-2.994.013-.066.024-.13.034-.193.129-.822-.001-1.382-.446-1.89" fill="#003087"/><path d="M3.368 3.123a.412.412 0 0 1 .407-.347H6.35c.305 0 .59.02.85.062.142.022.283.054.42.094.158.044.31.105.455.18.129-.822-.001-1.382-.446-1.89C7.14.666 6.255.427 5.123.427H1.836a.47.47 0 0 0-.464.397L.003 9.5a.282.282 0 0 0 .279.326h2.03l.509-3.232.547-3.472Z" fill="#003087"/><path d="M8.076 3.112a5.36 5.36 0 0 1-.033.192C7.609 5.53 6.126 6.3 4.233 6.3h-.965a.469.469 0 0 0-.463.397l-.494 3.13-.14.888a.247.247 0 0 0 .244.286h1.71a.412.412 0 0 0 .407-.347l.016-.087.323-2.043.02-.113a.412.412 0 0 1 .407-.347h.256c1.656 0 2.954-.673 3.333-2.62.158-.813.076-1.493-.342-1.97a1.633 1.633 0 0 0-.469-.361" fill="#009CDE"/><path d="M7.626 2.932a2.977 2.977 0 0 0-.422-.094 5.313 5.313 0 0 0-.85-.062H3.778a.41.41 0 0 0-.406.347l-.548 3.472-.015.101A.469.469 0 0 1 3.27 6.3h.965c1.894 0 3.377-.769 3.81-2.994.013-.066.024-.13.034-.193a2.34 2.34 0 0 0-.454-.18" fill="#012169"/></svg>
